X: 688
T: Planxty O'Daly
C:O'Carolan
B:O'Neill's 688
Z: 1997 by John Chambers <jc@trillian.mit.edu>
N:"Spirited"
N:The turn in bar 3 is above the dot in O'Neill.
M:6/8
L:1/8
K:Gm
(A/G/) \
| FDD FDC | DGG G2A | ~B3 GBd | {d}cAG F2((3c/d/=e/) |
| fFF AFF | cAG (F>GA/c/) | d2{ed}^c (d>cA/d/) | =cA^F G2 ||
((3d/=e/^f/) \
| g^fg G2(B/d/) | g^fg (G>cd/=e/) | f=ef F2(A/c/) | fcA F2 (G/A/) |
| {c}BAB B,2=B | {d}c=Bc A2 (B/c/) | d2{ed}^c (d>cA/d/) | =cA^F G2 |]


